packages/icons/svgs/solid/settings-gear-solid.svg

<svg width="12" height="12" viewBox="0 0 12 12" xmlns="http://www.w3.org/2000/svg"><path d="m9.975 3.9.825-1.575-1.05-1.05-1.575.825c-.225-.15-.525-.225-.825-.3L6.75 0h-1.5l-.6 1.725c-.225.075-.525.15-.75.3L2.325 1.2 1.2 2.325 2.025 3.9c-.15.225-.225.525-.3.75L0 5.25v1.5l1.725.6c.075.3.225.525.3.825L1.2 9.75l1.05 1.05 1.575-.825c.225.15.525.225.825.3L5.25 12h1.5l.6-1.725c.3-.075.525-.225.825-.3l1.575.825 1.05-1.05-.825-1.575c.15-.225.225-.525.3-.825L12 6.75v-1.5l-1.725-.6c-.075-.225-.15-.525-.3-.75ZM6 8.25c-1.275 0-2.25-.975-2.25-2.25S4.725 3.75 6 3.75 8.25 4.725 8.25 6 7.275 8.25 6 8.25Z"/></svg>

<svg width="12" height="12" viewBox="0 0 12 12" fill="none" xmlns="http://www.w3.org/2000/svg">
<path d="M9.975 3.9L10.8 2.325L9.75 1.275L8.175 2.1C7.95 1.95 7.65 1.875 7.35 1.8L6.75 0H5.25L4.65 1.725C4.425 1.8 4.125 1.875 3.9 2.025L2.325 1.2L1.2 2.325L2.025 3.9C1.875 4.125 1.8 4.425 1.725 4.65L0 5.25V6.75L1.725 7.35C1.8 7.65 1.95 7.875 2.025 8.175L1.2 9.75L2.25 10.8L3.825 9.975C4.05 10.125 4.35 10.2 4.65 10.275L5.25 12H6.75L7.35 10.275C7.65 10.2 7.875 10.05 8.175 9.975L9.75 10.8L10.8 9.75L9.975 8.175C10.125 7.95 10.2 7.65 10.275 7.35L12 6.75V5.25L10.275 4.65C10.2 4.425 10.125 4.125 9.975 3.9ZM6 8.25C4.725 8.25 3.75 7.275 3.75 6C3.75 4.725 4.725 3.75 6 3.75C7.275 3.75 8.25 4.725 8.25 6C8.25 7.275 7.275 8.25 6 8.25Z" fill="black"/>
</svg>
